X: 2
T: Do You Want Any More ?
R: jig
M: 6/8
L: 1/8
K: Dmix
E|FDF A2B|cAd cAG|Ad^c d2e|fed cAG|FDF A2B|cAd cAG|Adc AGE|FDD D2:|e|fdg fd^c|Add ^cde|fdg fd^c|AB^c dfg|aba g2e|fed cAG|Adc AGE|FDD D2:|


Tune 1051	Setting 25890

